**kern	**kern
*part1	*part1
*staff2	*staff1
*I"Piano	*
*clefF4	*clefG2
*k[f#c#g#]	*k[f#c#g#]
=1	=1
*	*^
2.AA#X 2.E	4cc#	4r
.	4b#X	4c# 4e 4f##X
.	4cc#	4c# 4e 4f##
=	=	=
2.BB 2.E	2.ee	4r
.	.	4d 4e 4g#
.	.	4d 4e 4g#
=	=	=
2.EE: 2.G#:	2.g#	4r
.	.	4d 4e
.	.	4d 4e
=	=	=
4F#	4f#	4r
4G#	4g#	4d 4e
4c#	4cc#	4d 4e
=	=	=
4B	4b	4r
4G#	4g#	4d 4e
4F#	4f#	4d
=	=	=
*^	*	*
[2.E	4AA	[2.e	4r
.	4r	.	4A 4c#
.	4r	.	4A 4c#
=	=	=	=
2E]	4EE	2e]	4A 4c#
.	4r	.	4re
4r	4r	4re	4re
*v	*v	*	*
*	*v	*v
=	=
*-	*-
!!!system-decoration: {(s1,s2)}
